src/next/res/da05.svg

<svg height="16" width="16" xmlns="http://www.w3.org/2000/svg" xmlns:xlink="http://www.w3.org/1999/xlink"><filter id="a"><feGaussianBlur stdDeviation="2.0786429"/></filter><radialGradient id="b" cx="108" cy="128.54001" gradientTransform="matrix(.98281247 0 0 .98248353 -1.799998 11.962339)" gradientUnits="userSpaceOnUse" r="139.55859"><stop offset="0" stop-color="#b7b8b9"/><stop offset=".18851049" stop-color="#ececec"/><stop offset=".25718147" stop-color="#fafafa"/><stop offset=".30111277" stop-color="#fff"/><stop offset=".5313" stop-color="#fafafa"/><stop offset=".8449" stop-color="#ebecec"/><stop offset="1" stop-color="#e1e2e3"/></radialGradient><g transform="scale(.125)"><path d="m3.9650279 21.75119.034971 86.469h117.9650211l-.035-86.469z" filter="url(#a)" opacity=".758364" transform="matrix(.98281249 0 0 .98281249 2.131251 .657034)"/><path d="m7.993755 24 .03437 80.06875h111.177005l.82924-.82925-.03437-79.2395z" fill="#fff" stroke-width=".982812"/><path d="m16.839067 31.8625c-.541529 0-.983106.441465-.982812.982812l.03437 63.360938h95.052735c1.14219.0349 1.22864-1.5726 1.22851-1.81206l-.0344-61.548878c-.0003-.541347-.4403-.982812-.98281-.982812z" fill="url(#b)" stroke-width=".982812"/><g fill="#404040" fill-opacity=".839216"><path d="m80 72v-8h-44v8z"/><path d="m92 56v-8.149121h-56v8.149121z"/><path d="m92 88v-8h-56v8z"/></g></g></svg>

<?xml version="1.0" encoding="UTF-8" standalone="no"?>
<svg
   xmlns:dc="http://purl.org/dc/elements/1.1/"
   xmlns:cc="http://creativecommons.org/ns#"
   xmlns:rdf="http://www.w3.org/1999/02/22-rdf-syntax-ns#"
   xmlns:svg="http://www.w3.org/2000/svg"
   xmlns="http://www.w3.org/2000/svg"
   xmlns:sodipodi="http://sodipodi.sourceforge.net/DTD/sodipodi-0.dtd"
   xmlns:inkscape="http://www.inkscape.org/namespaces/inkscape"
   height="16"
   width="16"
   version="1.1"
   id="svg13829"
   sodipodi:docname="da05.svg"
   inkscape:version="0.92.4 (unknown)"
   inkscape:export-filename="/home/rizmut/Dokumen/Rizmut/Github/libreoffice-style-karasa-jaga/build/images_karasa_jaga/res/da05.png"
   inkscape:export-xdpi="96"
   inkscape:export-ydpi="96">
  <metadata
     id="metadata13835">
    <rdf:RDF>
      <cc:Work
         rdf:about="">
        <dc:format>image/svg+xml</dc:format>
        <dc:type
           rdf:resource="http://purl.org/dc/dcmitype/StillImage" />
        <dc:title></dc:title>
      </cc:Work>
    </rdf:RDF>
  </metadata>
  <defs
     id="defs13833" />
  <sodipodi:namedview
     pagecolor="#ffffff"
     bordercolor="#666666"
     borderopacity="1"
     objecttolerance="10"
     gridtolerance="10"
     guidetolerance="10"
     inkscape:pageopacity="0"
     inkscape:pageshadow="2"
     inkscape:window-width="640"
     inkscape:window-height="480"
     id="namedview13831"
     showgrid="true"
     inkscape:zoom="29.75"
     inkscape:cx="13.161948"
     inkscape:cy="7.1022621"
     inkscape:current-layer="g27391">
    <inkscape:grid
       type="xygrid"
       id="grid27379" />
  </sodipodi:namedview>
  <filter
     id="a">
    <feGaussianBlur
       stdDeviation="2.0786429"
       id="feGaussianBlur13797" />
  </filter>
  <radialGradient
     id="b"
     cx="108"
     cy="128.54001"
     gradientTransform="matrix(0.98281247,0,0,0.98248353,-1.799998,11.962339)"
     gradientUnits="userSpaceOnUse"
     r="139.55859">
    <stop
       offset="0"
       stop-color="#b7b8b9"
       id="stop13800" />
    <stop
       offset=".18851049"
       stop-color="#ececec"
       id="stop13802" />
    <stop
       offset=".25718147"
       stop-color="#fafafa"
       id="stop13804" />
    <stop
       offset=".30111277"
       stop-color="#fff"
       id="stop13806" />
    <stop
       offset=".5313"
       stop-color="#fafafa"
       id="stop13808" />
    <stop
       offset=".8449"
       stop-color="#ebecec"
       id="stop13810" />
    <stop
       offset="1"
       stop-color="#e1e2e3"
       id="stop13812" />
  </radialGradient>
  <g
     id="g27391"
     transform="scale(0.125)">
    <path
       id="path13815"
       transform="matrix(0.98281249,0,0,0.98281249,2.131251,0.657034)"
       d="m 3.9650279,21.75119 0.034971,86.469 H 121.96502 l -0.035,-86.469 z"
       inkscape:connector-curvature="0"
       style="opacity:0.75836403;filter:url(#a)"
       sodipodi:nodetypes="ccccc" />
    <path
       id="path13817"
       d="m 7.993755,24 0.03437,80.06875 H 119.20513 L 120.03437,103.2395 120,24 Z"
       inkscape:connector-curvature="0"
       style="fill:#ffffff;stroke-width:0.98281199"
       sodipodi:nodetypes="cccccc" />
    <path
       id="path13819"
       d="m 16.839067,31.8625 c -0.541529,0 -0.983106,0.441465 -0.982812,0.982812 l 0.03437,63.360938 h 95.052735 c 1.14219,0.0349 1.22864,-1.5726 1.22851,-1.81206 l -0.0344,-61.548878 c -3e-4,-0.541347 -0.4403,-0.982812 -0.98281,-0.982812 z"
       style="fill:url(#b);stroke-width:0.98281199"
       inkscape:connector-curvature="0"
       sodipodi:nodetypes="ssccssss" />
    <g
       id="g13827"
       style="fill:#404040;fill-opacity:0.83921599">
      <path
         id="path13821"
         d="M 80,72 V 64 H 36 v 8 z"
         inkscape:connector-curvature="0" />
      <path
         id="path13823"
         d="M 92,56 V 47.850879 H 36 V 56 Z"
         inkscape:connector-curvature="0" />
      <path
         id="path13825"
         d="M 92,88 V 80 H 36 v 8 z"
         inkscape:connector-curvature="0" />
    </g>
  </g>
</svg>
